resources/haticons/SVG/target.svg

<!-- Generated by IcoMoon.io -->
<svg version="1.1" xmlns="http://www.w3.org/2000/svg" width="24" height="24" viewBox="0 0 24 24">
<title>target</title>
<path d="M24 10.5h-2.365c-0.648-4.178-3.957-7.487-8.135-8.135v-2.365h-3v2.365c-4.178 0.648-7.487 3.957-8.135 8.135h-2.365v3h2.365c0.648 4.178 3.957 7.487 8.135 8.135v2.365h3v-2.365c4.178-0.648 7.487-3.957 8.135-8.135h2.365v-3zM18.582 10.5h-2.338c-0.452-1.279-1.465-2.292-2.744-2.744v-2.338c2.52 0.574 4.508 2.562 5.082 5.082zM12 13.5c-0.828 0-1.5-0.672-1.5-1.5s0.672-1.5 1.5-1.5c0.828 0 1.5 0.672 1.5 1.5s-0.672 1.5-1.5 1.5zM10.5 5.418v2.338c-1.279 0.452-2.292 1.465-2.744 2.744h-2.338c0.574-2.52 2.562-4.508 5.082-5.082zM5.418 13.5h2.338c0.452 1.279 1.465 2.292 2.744 2.744v2.338c-2.52-0.574-4.508-2.562-5.082-5.082zM13.5 18.582v-2.338c1.279-0.452 2.292-1.465 2.744-2.744h2.338c-0.574 2.52-2.562 4.508-5.082 5.082z"></path>
</svg>

<svg xmlns="http://www.w3.org/2000/svg" width="24" height="24"><path d="M24 10.5h-2.365A9.774 9.774 0 0 0 13.5 2.365V0h-3v2.365A9.774 9.774 0 0 0 2.365 10.5H0v3h2.365a9.774 9.774 0 0 0 8.135 8.135V24h3v-2.365a9.774 9.774 0 0 0 8.135-8.135H24v-3zm-5.418 0h-2.338A4.511 4.511 0 0 0 13.5 7.756V5.418a6.772 6.772 0 0 1 5.082 5.082zM12 13.5a1.5 1.5 0 1 1 .001-3.001A1.5 1.5 0 0 1 12 13.5zm-1.5-8.082v2.338A4.511 4.511 0 0 0 7.756 10.5H5.418A6.772 6.772 0 0 1 10.5 5.418zM5.418 13.5h2.338a4.511 4.511 0 0 0 2.744 2.744v2.338A6.772 6.772 0 0 1 5.418 13.5zm8.082 5.082v-2.338a4.511 4.511 0 0 0 2.744-2.744h2.338a6.772 6.772 0 0 1-5.082 5.082z"/></svg>
